X:1
T:The Crystal Spring
Z:Cecil Sharp
B:A Selection of Collected Folk-Songs,  Novello
F:http://www.folkinfo.org/songs
M:3/4     %Meter
L:1/8     %
K:F
C |F2 (FG) AB |c4 cA |G2 (GA) (Bc) | d4
w:Down by some_ cry-stal spring, where the night-in-*gales_  sing
(fd) |c2 dc AG |F2 G2 d2 |c2 A2 (A3/2G/) | A4
w:sMost_ plea-sant it is, in sea-son, to hear the groves_ ring.
 (Ac) |d3 c (3:2(de)f |A4 AG |A2 D2 GG | (F2E2) 
w: Down_ by the riv-*er side, a young cap-tain I es-pied,_
C2 |FG (AB) (cA) |d2 c2 AG |(A2D2) E2 | F4  |]
w:En-treat-ing of_ his_ true love, for to be_ his bride. 
